X:30
T:Byrne's Hornpipe 
B:CRE1.208 (Cornphiopa Ui Bhroin)
F:file ID: cre.1/030byrnes
S:John Potts
M:C
R:hornpipe
L:1/8
Q:150
K:D
AG|F2GE AFD2|dA (3Bcd ecA>g|fdge fdec|dcdf ecAG|
F2GE AFD2|dA (3Bcd ecAG|FAdA (3Bcd ec|d2dd d2:|
cd|ecAc efgf|ecAc ef (3gfe|fdge fdec|dcdf ecAG|
F2GE AFD2|dA (3Bcd ecAG|FAdA (3Bcd ec|d2dd d2:|

%%%

